X: 1786
T: Ar Hyd Y Nos
R: reel
M: 4/4
K: Gmajor
G3 F E2 G2|A3 G F2 D2|E4 F3 F|G8|
G3 F E2 G2|A3 G F2 D2|E4 F3 F|G8||
c3 B c2 d2|e3 d c2 B2|c3 B A2 G2|B3 A G2 F2|
G3 F E2 G2|A3 G F2 D2|E4 F3 F|G8||

